public/brand/logo.svg

<svg version="1.1" id="Layer_1" xmlns="http://www.w3.org/2000/svg" xmlns:xlink="http://www.w3.org/1999/xlink" x="0px" y="0px"
	 width="100%" viewBox="0 0 1007 1007" enable-background="new 0 0 1007 1007" xml:space="preserve">
<path fill="#45210E" opacity="1.000000" stroke="none" 
	d="
M560.000000,1008.000000 
	C373.333344,1008.000000 187.166672,1008.000000 1.000000,1008.000000 
	C1.000000,672.333313 1.000000,336.666656 1.000000,1.000000 
	C336.666656,1.000000 672.333313,1.000000 1008.000000,1.000000 
	C1008.000000,336.666656 1008.000000,672.333313 1008.000000,1008.000000 
	C858.833313,1008.000000 709.666687,1008.000000 560.000000,1008.000000 
M440.743774,105.242386 
	C438.572540,107.309639 436.344940,109.321198 434.238464,111.452431 
	C396.510132,149.623566 372.276398,194.939011 363.356293,247.940109 
	C360.996429,261.961884 358.946777,276.673065 360.603027,290.610352 
	C365.030243,327.864777 394.910004,357.905762 431.834900,364.830811 
	C436.723083,365.747589 441.737213,365.993011 447.763702,366.669525 
	C446.254150,363.858124 445.507843,362.409912 444.709564,360.990906 
	C439.517578,351.761383 436.885193,341.740936 437.455444,331.277863 
	C439.589569,292.120056 458.815063,264.154144 494.094208,247.402267 
	C503.544983,242.914673 513.742554,238.863556 524.373901,240.455948 
	C548.543213,244.076111 568.703491,255.555466 584.000793,274.713074 
	C599.847656,294.559021 607.550598,317.209198 603.764282,342.677429 
	C602.575073,350.677063 598.728027,358.281586 595.936157,366.544159 
	C600.137085,366.074554 604.740540,365.758667 609.275574,365.021576 
	C646.763123,358.928711 678.394348,326.946808 681.791199,289.350922 
	C683.086792,275.012085 681.404419,259.972870 678.550415,245.760666 
	C660.577881,156.262833 608.759338,93.666801 525.888672,56.228947 
	C522.563171,54.726585 519.736023,54.769550 516.419739,56.200459 
	C488.640594,68.186523 463.511292,84.231010 440.743774,105.242386 
M286.676636,492.678345 
	C287.329773,493.793732 287.835724,495.033447 288.657562,496.006378 
	C309.770172,521.000305 334.755707,541.223022 364.045837,555.811401 
	C374.407410,560.972046 385.114655,566.593323 396.291962,568.749573 
	C432.863312,575.804749 469.791931,575.543579 506.608704,569.950623 
	C542.882812,564.440125 577.636902,553.955383 610.255371,536.938660 
	C635.979919,523.518494 665.744080,527.108459 687.312561,546.611755 
	C690.823608,549.786621 693.878845,553.465637 697.214539,556.985291 
	C719.173889,537.685486 738.051208,516.184204 753.920410,491.916840 
	C752.879761,490.957520 752.286987,490.387451 751.669678,489.845367 
	C716.653381,459.096100 676.901917,436.766174 632.377991,423.023193 
	C629.713745,422.200836 626.423889,422.161865 623.725525,422.882690 
	C590.944153,431.639587 558.238403,440.679779 525.448730,449.404907 
	C522.300964,450.242554 518.534851,450.164001 515.372437,449.321808 
	C482.598022,440.593750 449.897797,431.587128 417.141144,422.791412 
	C414.867096,422.180786 412.115295,422.006958 409.909119,422.683990 
	C363.870605,436.812317 322.877258,459.923096 286.676636,492.678345 
M638.193726,649.759216 
	C618.869507,656.015442 599.040955,658.948853 578.743958,658.635498 
	C561.320618,658.366577 544.380371,654.932678 527.565796,650.671387 
	C525.521851,650.153320 523.254150,649.859985 521.196533,650.169861 
	C512.810059,651.432678 504.514069,653.468018 496.093933,654.298462 
	C480.882416,655.798584 465.515686,658.255371 450.375763,657.410278 
	C421.185272,655.780762 394.125427,646.062805 369.145020,630.771667 
	C368.008179,630.075806 366.770874,629.544006 364.879761,628.577820 
	C379.822174,677.662048 402.386169,721.588440 433.601837,761.123535 
	C468.862305,805.781311 475.313782,854.488708 452.707825,906.779114 
	C449.580719,914.012512 445.212494,920.709351 441.423889,927.657288 
	C573.221985,890.897766 675.186523,765.328125 681.092896,630.672180 
	C667.338623,636.799011 653.131897,643.127319 638.193726,649.759216 
M451.496307,582.220520 
	C442.351196,581.799133 433.142700,581.909058 424.076202,580.828186 
	C411.400055,579.317017 398.218109,578.681030 386.332123,574.558289 
	C354.337128,563.460327 326.346069,545.236816 301.709656,521.949341 
	C300.020294,520.352478 298.291534,518.797302 295.873596,516.571472 
	C296.025665,518.456909 295.980042,519.134644 296.144836,519.756653 
	C304.310333,550.579102 319.447479,577.592346 342.608459,599.413086 
	C382.985504,637.453735 430.264038,654.771729 486.434967,647.405457 
	C555.692078,638.323059 618.847046,614.520935 675.700134,573.984924 
	C680.675537,570.437500 685.476868,566.646118 690.581665,562.800293 
	C677.023743,544.661377 659.575134,536.325806 637.562927,537.450195 
	C626.043884,538.038574 616.340271,543.514893 606.234131,548.288513 
	C557.596436,571.262329 506.255249,582.294250 451.496307,582.220520 
M539.676270,436.107300 
	C577.955139,425.690460 616.233948,415.273621 655.757202,404.518158 
	C635.089294,395.015900 615.544373,386.029968 595.877441,376.987946 
	C594.662292,379.021637 593.749573,380.591156 592.797180,382.136292 
	C586.595276,392.197998 578.925293,400.845184 568.666138,406.952454 
	C534.791809,427.117798 492.288269,422.383606 462.337891,394.876129 
	C456.381653,389.405701 451.112213,383.187500 445.401093,377.182709 
	C426.206024,386.105682 406.958923,395.052887 386.824615,404.412476 
	C389.268799,405.156464 390.645874,405.614380 392.043884,405.995544 
	C429.426819,416.187622 466.920624,425.996552 504.132446,436.778748 
	C515.781982,440.154175 526.683472,441.361206 537.944458,436.636871 
	C538.251221,436.508148 538.570312,436.408813 539.676270,436.107300 
M636.169495,641.720032 
	C693.203857,621.317932 729.752136,581.965942 745.785767,523.547119 
	C689.811462,583.441650 622.343140,624.064514 542.504456,645.372620 
	C570.121521,652.872437 603.639343,651.544189 636.169495,641.720032 
z"/>
<path fill="#F4BA17" opacity="1.000000" stroke="none" 
	d="
M441.015747,105.015450 
	C463.511292,84.231010 488.640594,68.186523 516.419739,56.200459 
	C519.736023,54.769550 522.563171,54.726585 525.888672,56.228947 
	C608.759338,93.666801 660.577881,156.262833 678.550415,245.760666 
	C681.404419,259.972870 683.086792,275.012085 681.791199,289.350922 
	C678.394348,326.946808 646.763123,358.928711 609.275574,365.021576 
	C604.740540,365.758667 600.137085,366.074554 595.936157,366.544159 
	C598.728027,358.281586 602.575073,350.677063 603.764282,342.677429 
	C607.550598,317.209198 599.847656,294.559021 584.000793,274.713074 
	C568.703491,255.555466 548.543213,244.076111 524.373901,240.455948 
	C513.742554,238.863556 503.544983,242.914673 494.094208,247.402267 
	C458.815063,264.154144 439.589569,292.120056 437.455444,331.277863 
	C436.885193,341.740936 439.517578,351.761383 444.709564,360.990906 
	C445.507843,362.409912 446.254150,363.858124 447.763702,366.669525 
	C441.737213,365.993011 436.723083,365.747589 431.834900,364.830811 
	C394.910004,357.905762 365.030243,327.864777 360.603027,290.610352 
	C358.946777,276.673065 360.996429,261.961884 363.356293,247.940109 
	C372.276398,194.939011 396.510132,149.623566 434.238464,111.452431 
	C436.344940,109.321198 438.572540,107.309639 441.015747,105.015450 
M523.796143,200.964203 
	C522.979370,200.806061 522.153381,200.684708 521.347168,200.484161 
	C511.964752,198.150375 505.739960,190.440384 506.015442,181.511810 
	C506.292053,172.544968 512.964478,165.113678 522.410034,163.391052 
	C528.999146,162.189362 534.425354,164.852509 539.153198,168.766846 
	C541.656067,166.404358 544.030029,164.163544 546.391113,161.934906 
	C535.207764,149.868927 515.326111,149.927109 503.764648,161.836975 
	C492.335419,173.610657 493.100830,193.056198 505.417236,203.820190 
	C517.457336,214.342712 537.192993,213.508774 546.093628,202.189407 
	C543.863281,199.842941 541.645081,197.509277 539.426880,195.175613 
	C539.477722,195.664429 539.528503,196.153259 539.579346,196.642075 
	C534.598694,198.089890 529.617981,199.537689 523.796143,200.964203 
z"/>
<path fill="#F4BA17" opacity="1.000000" stroke="none" 
	d="
M286.857971,492.402985 
	C322.877258,459.923096 363.870605,436.812317 409.909119,422.683990 
	C412.115295,422.006958 414.867096,422.180786 417.141144,422.791412 
	C449.897797,431.587128 482.598022,440.593750 515.372437,449.321808 
	C518.534851,450.164001 522.300964,450.242554 525.448730,449.404907 
	C558.238403,440.679779 590.944153,431.639587 623.725525,422.882690 
	C626.423889,422.161865 629.713745,422.200836 632.377991,423.023193 
	C676.901917,436.766174 716.653381,459.096100 751.669678,489.845367 
	C752.286987,490.387451 752.879761,490.957520 753.920410,491.916840 
	C738.051208,516.184204 719.173889,537.685486 697.214539,556.985291 
	C693.878845,553.465637 690.823608,549.786621 687.312561,546.611755 
	C665.744080,527.108459 635.979919,523.518494 610.255371,536.938660 
	C577.636902,553.955383 542.882812,564.440125 506.608704,569.950623 
	C469.791931,575.543579 432.863312,575.804749 396.291962,568.749573 
	C385.114655,566.593323 374.407410,560.972046 364.045837,555.811401 
	C334.755707,541.223022 309.770172,521.000305 288.657562,496.006378 
	C287.835724,495.033447 287.329773,493.793732 286.857971,492.402985 
z"/>
<path fill="#F4BA17" opacity="1.000000" stroke="none" 
	d="
M638.559448,649.607422 
	C653.131897,643.127319 667.338623,636.799011 681.092896,630.672180 
	C675.186523,765.328125 573.221985,890.897766 441.421356,927.655945 
	C445.212494,920.709351 449.580719,914.012512 452.707825,906.779114 
	C475.313782,854.488708 468.862305,805.781311 433.601837,761.123535 
	C402.386169,721.588440 379.822174,677.662048 364.879761,628.577820 
	C366.770874,629.544006 368.008179,630.075806 369.145020,630.771667 
	C394.125427,646.062805 421.185272,655.780762 450.375763,657.410278 
	C465.515686,658.255371 480.882416,655.798584 496.093933,654.298462 
	C504.514069,653.468018 512.810059,651.432678 521.196533,650.169861 
	C523.254150,649.859985 525.521851,650.153320 527.565796,650.671387 
	C544.380371,654.932678 561.320618,658.366577 578.743958,658.635498 
	C599.040955,658.948853 618.869507,656.015442 638.559448,649.607422 
z"/>
<path fill="#F3B917" opacity="1.000000" stroke="none" 
	d="
M451.996887,582.225220 
	C506.255249,582.294250 557.596436,571.262329 606.234131,548.288513 
	C616.340271,543.514893 626.043884,538.038574 637.562927,537.450195 
	C659.575134,536.325806 677.023743,544.661377 690.581665,562.800293 
	C685.476868,566.646118 680.675537,570.437500 675.700134,573.984924 
	C618.847046,614.520935 555.692078,638.323059 486.434967,647.405457 
	C430.264038,654.771729 382.985504,637.453735 342.608459,599.413086 
	C319.447479,577.592346 304.310333,550.579102 296.144836,519.756653 
	C295.980042,519.134644 296.025665,518.456909 295.873596,516.571472 
	C298.291534,518.797302 300.020294,520.352478 301.709656,521.949341 
	C326.346069,545.236816 354.337128,563.460327 386.332123,574.558289 
	C398.218109,578.681030 411.400055,579.317017 424.076202,580.828186 
	C433.142700,581.909058 442.351196,581.799133 451.996887,582.225220 
z"/>
<path fill="#F2B817" opacity="1.000000" stroke="none" 
	d="
M539.279968,436.201538 
	C538.570312,436.408813 538.251221,436.508148 537.944458,436.636871 
	C526.683472,441.361206 515.781982,440.154175 504.132446,436.778748 
	C466.920624,425.996552 429.426819,416.187622 392.043884,405.995544 
	C390.645874,405.614380 389.268799,405.156464 386.824615,404.412476 
	C406.958923,395.052887 426.206024,386.105682 445.401093,377.182709 
	C451.112213,383.187500 456.381653,389.405701 462.337891,394.876129 
	C492.288269,422.383606 534.791809,427.117798 568.666138,406.952454 
	C578.925293,400.845184 586.595276,392.197998 592.797180,382.136292 
	C593.749573,380.591156 594.662292,379.021637 595.877441,376.987946 
	C615.544373,386.029968 635.089294,395.015900 655.757202,404.518158 
	C616.233948,415.273621 577.955139,425.690460 539.279968,436.201538 
z"/>
<path fill="#F2B817" opacity="1.000000" stroke="none" 
	d="
M635.789856,641.836487 
	C603.639343,651.544189 570.121521,652.872437 542.504456,645.372620 
	C622.343140,624.064514 689.811462,583.441650 745.785767,523.547119 
	C729.752136,581.965942 693.203857,621.317932 635.789856,641.836487 
z"/>
<path fill="#48240F" opacity="1.000000" stroke="none" 
	d="
M524.216736,200.974854 
	C529.617981,199.537689 534.598694,198.089890 539.579346,196.642075 
	C539.528503,196.153259 539.477722,195.664429 539.426880,195.175613 
	C541.645081,197.509277 543.863281,199.842941 546.093628,202.189407 
	C537.192993,213.508774 517.457336,214.342712 505.417236,203.820190 
	C493.100830,193.056198 492.335419,173.610657 503.764648,161.836975 
	C515.326111,149.927109 535.207764,149.868927 546.391113,161.934906 
	C544.030029,164.163544 541.656067,166.404358 539.153198,168.766846 
	C534.425354,164.852509 528.999146,162.189362 522.410034,163.391052 
	C512.964478,165.113678 506.292053,172.544968 506.015442,181.511810 
	C505.739960,190.440384 511.964752,198.150375 521.347168,200.484161 
	C522.153381,200.684708 522.979370,200.806061 524.216736,200.974854 
z"/>
</svg>

<svg xmlns="http://www.w3.org/2000/svg" xml:space="preserve" viewBox="0 0 1007 1007"><path fill="#45210e" d="M560 1008H1V1h1007v1007zM440.744 105.242c-2.171 2.068-4.4 4.08-6.506 6.21-37.728 38.172-61.962 83.487-70.882 136.488-2.36 14.022-4.41 28.733-2.753 42.67 4.427 37.255 34.307 67.296 71.232 74.22 4.888.918 9.902 1.163 15.929 1.84-1.51-2.812-2.256-4.26-3.054-5.68-5.192-9.229-7.825-19.25-7.255-29.712 2.135-39.158 21.36-67.124 56.64-83.876 9.45-4.487 19.648-8.538 30.279-6.946 24.17 3.62 44.33 15.1 59.627 34.257 15.847 19.846 23.55 42.496 19.763 67.964-1.189 8-5.036 15.605-7.828 23.867 4.201-.47 8.805-.785 13.34-1.522 37.487-6.093 69.118-38.075 72.515-75.671 1.296-14.339-.387-29.378-3.24-43.59-17.973-89.498-69.792-152.094-152.662-189.532-3.326-1.502-6.153-1.46-9.47-.029-27.778 11.987-52.908 28.031-75.675 49.042M286.677 492.678c.653 1.116 1.159 2.355 1.98 3.328 21.113 24.994 46.099 45.217 75.389 59.805 10.361 5.161 21.069 10.782 32.246 12.939 36.571 7.055 73.5 6.794 110.317 1.2 36.274-5.51 71.028-15.995 103.646-33.011 25.725-13.42 55.49-9.83 77.058 9.673 3.51 3.175 6.566 6.854 9.902 10.373 21.959-19.3 40.836-40.8 56.705-65.068-1.04-.96-1.633-1.53-2.25-2.072-35.017-30.749-74.768-53.079-119.292-66.822-2.664-.822-5.954-.861-8.652-.14-32.782 8.757-65.488 17.797-98.277 26.522-3.148.838-6.914.759-10.077-.083-32.774-8.728-65.474-17.735-98.23-26.53-2.275-.611-5.027-.785-7.233-.108-46.038 14.128-87.032 37.24-123.232 69.994M638.194 649.76c-19.324 6.256-39.153 9.19-59.45 8.876-17.423-.268-34.364-3.702-51.178-7.964-2.044-.518-4.312-.811-6.37-.501-8.386 1.263-16.682 3.298-25.102 4.128-15.212 1.5-30.578 3.957-45.718 3.112-29.19-1.63-56.25-11.347-81.231-26.638-1.137-.696-2.374-1.228-4.265-2.194 14.942 49.084 37.506 93.01 68.722 132.546 35.26 44.657 41.712 93.365 19.106 145.655-3.127 7.234-7.496 13.93-11.284 20.878 131.798-36.76 233.763-162.329 239.669-296.985a37080 37080 0 0 1-42.9 19.087m-186.697-67.538c-9.145-.422-18.353-.312-27.42-1.393-12.676-1.511-25.858-2.147-37.744-6.27-31.995-11.098-59.986-29.321-84.622-52.609-1.69-1.597-3.418-3.152-5.836-5.378.152 1.886.106 2.564.27 3.186 8.166 30.822 23.303 57.835 46.464 79.656 40.378 38.04 87.656 55.359 143.827 47.992 69.257-9.082 132.412-32.884 189.265-73.42 4.976-3.548 9.777-7.339 14.882-11.185-13.558-18.139-31.007-26.474-53.02-25.35-11.518.589-21.222 6.065-31.328 10.839-48.638 22.973-99.979 34.005-154.738 33.932m88.18-146.114 116.081-31.589-59.88-27.53c-1.215 2.034-2.127 3.603-3.08 5.148-6.202 10.062-13.872 18.71-24.13 24.816-33.875 20.166-76.379 15.432-106.33-12.076-5.955-5.47-11.225-11.688-16.936-17.693l-58.576 27.23c2.444.743 3.82 1.201 5.219 1.583 37.383 10.192 74.877 20 112.088 30.783 11.65 3.375 22.551 4.582 33.812-.142.307-.129.626-.228 1.732-.53M636.17 641.72c57.035-20.402 93.583-59.754 109.617-118.173-55.975 59.895-123.443 100.518-203.282 121.826 27.618 7.5 61.135 6.171 93.665-3.653"/><path fill="#f4ba17" d="M441.016 105.015C463.51 84.231 488.64 68.187 516.42 56.2c3.316-1.43 6.143-1.473 9.469.029 82.87 37.438 134.689 100.034 152.661 189.532 2.854 14.212 4.537 29.251 3.241 43.59-3.397 37.596-35.028 69.578-72.515 75.67-4.535.738-9.139 1.054-13.34 1.523 2.792-8.262 6.64-15.867 7.828-23.867 3.787-25.468-3.916-48.118-19.763-67.964-15.298-19.158-35.458-30.637-59.627-34.257-10.631-1.592-20.829 2.459-30.28 6.946-35.279 16.752-54.504 44.718-56.639 83.876-.57 10.463 2.063 20.483 7.255 29.713.798 1.419 1.544 2.867 3.054 5.679-6.027-.677-11.04-.922-15.93-1.84-36.924-6.924-66.804-36.965-71.231-74.22-1.656-13.937.393-28.648 2.753-42.67 8.92-53.001 33.154-98.316 70.882-136.488 2.107-2.13 4.335-4.142 6.778-6.437m82.78 95.95c-.817-.159-1.643-.28-2.449-.48-9.382-2.335-15.607-10.045-15.332-18.973.277-8.967 6.95-16.398 16.395-18.12 6.59-1.203 12.015 1.46 16.743 5.375l7.238-6.832c-11.183-12.066-31.065-12.008-42.626-.098-11.43 11.774-10.664 31.22 1.652 41.983 12.04 10.523 31.776 9.689 40.677-1.63l-6.667-7.014.152 1.466c-4.98 1.448-9.961 2.896-15.783 4.322M286.858 492.403c36.02-32.48 77.013-55.59 123.051-69.719 2.206-.677 4.958-.503 7.232.107 32.757 8.796 65.457 17.803 98.231 26.53 3.163.843 6.929.922 10.077.084 32.79-8.725 65.495-17.765 98.277-26.522 2.698-.721 5.988-.682 8.652.14 44.524 13.743 84.275 36.073 119.292 66.822.617.542 1.21 1.113 2.25 2.072-15.869 24.267-34.746 45.768-56.705 65.068-3.336-3.52-6.391-7.198-9.902-10.373-21.569-19.504-51.333-23.094-77.058-9.673-32.618 17.016-67.372 27.501-103.646 33.012-36.817 5.593-73.746 5.854-110.317-1.201-11.177-2.157-21.885-7.778-32.246-12.939-29.29-14.588-54.276-34.81-75.388-59.805-.822-.973-1.328-2.212-1.8-3.603M638.56 649.607c14.572-6.48 28.779-12.808 42.533-18.935-5.906 134.656-107.871 260.226-239.672 296.984 3.791-6.947 8.16-13.643 11.287-20.877 22.606-52.29 16.154-100.998-19.106-145.655-31.216-39.536-53.78-83.462-68.722-132.546 1.89.966 3.128 1.498 4.265 2.194 24.98 15.29 52.04 25.009 81.23 26.638 15.14.845 30.507-1.611 45.719-3.112 8.42-.83 16.716-2.865 25.103-4.128 2.057-.31 4.325-.017 6.369.501 16.814 4.262 33.755 7.696 51.178 7.964 20.297.314 40.126-2.62 59.815-9.028"/><path fill="#f3b917" d="M451.997 582.225c54.258.07 105.6-10.963 154.237-33.936 10.106-4.774 19.81-10.25 31.329-10.839 22.012-1.124 39.46 7.211 53.019 25.35-5.105 3.846-9.906 7.638-14.882 11.185-56.853 40.536-120.008 64.338-189.265 73.42-56.171 7.367-103.45-9.951-143.827-47.992-23.16-21.82-38.298-48.834-46.463-79.656-.165-.622-.12-1.3-.271-3.186 2.418 2.226 4.146 3.781 5.836 5.378 24.636 23.288 52.627 41.511 84.622 52.61 11.886 4.122 25.068 4.758 37.744 6.27 9.067 1.08 18.275.97 27.92 1.396"/><path fill="#f2b817" d="M539.28 436.202c-.71.207-1.029.306-1.336.435-11.26 4.724-22.162 3.517-33.812.142-37.211-10.782-74.705-20.591-112.088-30.783-1.398-.382-2.775-.84-5.22-1.584l58.577-27.23c5.711 6.005 10.98 12.224 16.937 17.694 29.95 27.508 72.454 32.242 106.328 12.076 10.26-6.107 17.93-14.754 24.131-24.816.953-1.545 1.865-3.114 3.08-5.148l59.88 27.53c-39.523 10.756-77.802 21.172-116.477 31.684M635.79 641.836c-32.15 9.708-65.668 11.036-93.286 3.537 79.84-21.308 147.307-61.931 203.282-121.826-16.034 58.419-52.582 97.77-109.996 118.29"/><path fill="#48240f" d="M524.217 200.975c5.401-1.437 10.382-2.885 15.362-4.333l-.152-1.466 6.667 7.013c-8.901 11.32-28.637 12.154-40.677 1.631-12.316-10.764-13.082-30.21-1.652-41.983 11.561-11.91 31.443-11.968 42.626.098l-7.238 6.832c-4.728-3.914-10.154-6.578-16.743-5.376-9.446 1.723-16.118 9.154-16.395 18.12-.275 8.93 5.95 16.64 15.332 18.973.806.2 1.632.322 2.87.49"/></svg>
